icons/printer.svg

<svg width="24" height="24" viewBox="0 0 24 24" fill="none" xmlns="http://www.w3.org/2000/svg">
<path fill-rule="evenodd" clip-rule="evenodd" d="M8.80005 4.5C8.80005 4.42063 8.82919 4.36539 8.87429 4.32329C8.9269 4.27419 8.9954 4.25 9.05005 4.25H15.05C15.1294 4.25 15.1847 4.27914 15.2268 4.32424C15.2759 4.37685 15.3 4.44535 15.3 4.5V7.89999C15.3 7.95136 15.3052 8.00152 15.3151 8.04999H8.78505C8.79488 8.00152 8.80005 7.95136 8.80005 7.89999V4.5ZM7.31505 8.04999C7.30521 8.00152 7.30005 7.95136 7.30005 7.89999V4.5C7.30005 3.43789 8.18541 2.75 9.05005 2.75H15.05C16.1122 2.75 16.8 3.63536 16.8 4.5V7.89999C16.8 7.95136 16.7949 8.00152 16.785 8.04999H19.35C20.6643 8.04999 21.7 9.08576 21.7 10.4V14.4C21.7 15.7142 20.6643 16.75 19.35 16.75H16.6001V18.9179C16.8663 20.2557 15.6848 21.25 14.5501 21.25H9.45007C8.23586 21.25 7.20007 20.2142 7.20007 19V16.75H4.65005C3.33583 16.75 2.30005 15.7142 2.30005 14.4V10.4C2.30005 9.08576 3.33584 8.04999 4.65005 8.04999H7.31505ZM19.35 15.25H16.6001V14.5C16.6001 13.4858 15.7643 12.65 14.7501 12.65H9.05008C8.03587 12.65 7.20007 13.4858 7.20007 14.5V15.25H4.65005C4.16427 15.25 3.80005 14.8858 3.80005 14.4V10.4C3.80005 9.9142 4.16426 9.54999 4.65005 9.54999H19.35C19.8358 9.54999 20.2 9.9142 20.2 10.4V14.4C20.2 14.8858 19.8358 15.25 19.35 15.25ZM9.05008 14.15C8.86429 14.15 8.70007 14.3142 8.70007 14.5V19C8.70007 19.3858 9.06429 19.75 9.45007 19.75H14.5501C14.7351 19.75 14.9098 19.6669 15.0201 19.5455C15.1227 19.4326 15.1543 19.3094 15.1225 19.1819L15.1001 19.0924V14.5C15.1001 14.3142 14.9359 14.15 14.7501 14.15H9.05008Z" fill="black"/>
</svg>

<svg xmlns="http://www.w3.org/2000/svg" fill="none" viewBox="0 0 24 24">
  <path fill="#000" fill-rule="evenodd" d="M8.8 4.5c0-.08.03-.135.074-.177a.27.27 0 0 1 .176-.073h6c.08 0 .135.03.177.074a.27.27 0 0 1 .073.176v3.4c0 .051.005.102.015.15h-6.53A.754.754 0 0 0 8.8 7.9V4.5ZM7.315 8.05A.753.753 0 0 1 7.3 7.9V4.5c0-1.062.885-1.75 1.75-1.75h6c1.062 0 1.75.885 1.75 1.75v3.4a.749.749 0 0 1-.015.15h2.565a2.33 2.33 0 0 1 2.35 2.35v4a2.33 2.33 0 0 1-2.35 2.35H16.6v2.168c.266 1.338-.915 2.332-2.05 2.332h-5.1c-1.214 0-2.25-1.036-2.25-2.25v-2.25H4.65A2.33 2.33 0 0 1 2.3 14.4v-4a2.33 2.33 0 0 1 2.35-2.35h2.665Zm12.035 7.2H16.6v-.75a1.86 1.86 0 0 0-1.85-1.85h-5.7A1.86 1.86 0 0 0 7.2 14.5v.75H4.65a.83.83 0 0 1-.85-.85v-4a.83.83 0 0 1 .85-.85h14.7a.83.83 0 0 1 .85.85v4a.83.83 0 0 1-.85.85Zm-10.3-1.1a.36.36 0 0 0-.35.35V19c0 .386.364.75.75.75h5.1c.185 0 .36-.083.47-.204a.381.381 0 0 0 .103-.364l-.023-.09V14.5a.36.36 0 0 0-.35-.35h-5.7Z" clip-rule="evenodd"/>
</svg>
